src/assets/images/filter.svg

<svg fill="none" height="16" viewBox="0 0 16 16" width="16" xmlns="http://www.w3.org/2000/svg"><g fill="#ededed" fill-opacity=".4"><path d="m7.13334 1.74957c-.54547-1.159811-1.92787-1.657811-3.08765-1.112342-.489.23-.88238.623372-1.11235 1.112342h-1.93334c-.552281 0-1 .44772-1 1s.447719 1 1 1h1.93c.54547 1.15981 1.92787 1.65781 3.08766 1.11235.48897-.22997.88234-.62338 1.11234-1.11235h7.87c.5523 0 1-.44772 1-1s-.4477-1-1-1z"/><path d="m10.97 5.66602c-.8989.00159-1.71659.52059-2.10066 1.33334h-7.86934c-.552281 0-1 .44772-1 1s.447719 1 1 1h7.86666c.54546 1.15984 1.92784 1.65784 3.08764 1.11234.489-.22997.8824-.62337 1.1124-1.11234h1.9333c.5523 0 1-.44772 1-1s-.4477-1-1-1h-1.93c-.384-.81253-1.2013-1.33147-2.1-1.33334z"/><path d="m5.03 10.916c-.89869.0019-1.71603.5208-2.1 1.3334h-1.93c-.552281 0-1 .4477-1 1 0 .5522.447719 1 1 1h1.93c.54547 1.1598 1.92787 1.6578 3.08766 1.1123.48897-.23.88234-.6234 1.11234-1.1123h7.87c.5523 0 1-.4478 1-1 0-.5523-.4477-1-1-1h-7.86666c-.3845-.8136-1.20346-1.3328-2.10334-1.3334z"/></g></svg>

<svg width="16" height="16" viewBox="0 0 16 16" fill="none" xmlns="http://www.w3.org/2000/svg">
<g clipPath="url(#clip0_1127_6752)">
<path d="M7.13334 1.74957C6.58787 0.589759 5.20547 0.091759 4.04569 0.637228C3.55669 0.867228 3.16331 1.2606 2.93334 1.74957H1C0.447719 1.74957 0 2.19729 0 2.74957C0 3.30185 0.447719 3.74957 1 3.74957H2.93C3.47547 4.90938 4.85787 5.40738 6.01766 4.86192C6.50663 4.63195 6.9 4.23854 7.13 3.74957H15C15.5523 3.74957 16 3.30185 16 2.74957C16 2.19729 15.5523 1.74957 15 1.74957H7.13334Z" fill="#EDEDED" fill-opacity="0.4"/>
<path d="M10.97 5.66602C10.0711 5.66761 9.25341 6.18661 8.86934 6.99936H1C0.447719 6.99936 0 7.44708 0 7.99936C0 8.55164 0.447719 8.99936 1 8.99936H8.86666C9.41212 10.1592 10.7945 10.6572 11.9543 10.1117C12.4433 9.88173 12.8367 9.48833 13.0667 8.99936H15C15.5523 8.99936 16 8.55164 16 7.99936C16 7.44708 15.5523 6.99936 15 6.99936H13.07C12.686 6.18683 11.8687 5.66789 10.97 5.66602Z" fill="#EDEDED" fill-opacity="0.4"/>
<path d="M5.03 10.916C4.13131 10.9179 3.31397 11.4368 2.93 12.2494H1C0.447719 12.2494 0 12.6971 0 13.2494C0 13.8016 0.447719 14.2494 1 14.2494H2.93C3.47547 15.4092 4.85787 15.9072 6.01766 15.3617C6.50663 15.1317 6.9 14.7383 7.13 14.2494H15C15.5523 14.2494 16 13.8016 16 13.2494C16 12.6971 15.5523 12.2494 15 12.2494H7.13334C6.74884 11.4358 5.92988 10.9166 5.03 10.916Z" fill="#EDEDED" fill-opacity="0.4"/>
</g>
<defs>
<clipPath id="clip0_1127_6752">
<rect width="16" height="16" fill="white"/>
</clipPath>
</defs>
</svg>
